astro/public/img/footer/slack.svg

<?xml version="1.0" encoding="UTF-8"?>
<svg width="40px" height="40px" viewBox="0 0 40 40" version="1.1" xmlns="http://www.w3.org/2000/svg" xmlns:xlink="http://www.w3.org/1999/xlink">
    <title>icons8-slack-50</title>
    <g id="Page-1" stroke="none" stroke-width="1" fill="none" fill-rule="evenodd">
        <g id="icons8-slack-50" fill="#94A3B8" fill-rule="nonzero">
            <path d="M14.7368421,10.5263158 C13.3873684,10.5263158 5.55578947,10.5263158 4.21052632,10.5263158 C1.88421053,10.5263158 0,12.4105263 0,14.7368421 C0,17.0631579 1.88421053,18.9473684 4.21052632,18.9473684 C5.55578947,18.9473684 13.3873684,18.9473684 14.7368421,18.9473684 C17.0631579,18.9473684 18.9473684,17.0631579 18.9473684,14.7368421 C18.9473684,12.4105263 17.0631579,10.5263158 14.7368421,10.5263158 Z M18.9473684,4.21052632 C18.9473684,5.46947368 18.9473684,8.42105263 18.9473684,8.42105263 C18.9473684,8.42105263 15.8042105,8.42105263 14.7368421,8.42105263 C12.4105263,8.42105263 10.5263158,6.53684211 10.5263158,4.21052632 C10.5263158,1.88421053 12.4105263,0 14.7368421,0 C17.0631579,0 18.9473684,1.88421053 18.9473684,4.21052632 Z M10.5263158,25.2631579 C10.5263158,26.6126316 10.5263158,34.4442105 10.5263158,35.7894737 C10.5263158,38.1157895 12.4105263,40 14.7368421,40 C17.0631579,40 18.9473684,38.1157895 18.9473684,35.7894737 C18.9473684,34.4442105 18.9473684,26.6126316 18.9473684,25.2631579 C18.9473684,22.9368421 17.0631579,21.0526316 14.7368421,21.0526316 C12.4105263,21.0526316 10.5263158,22.9368421 10.5263158,25.2631579 Z M4.21052632,21.0526316 C5.46947368,21.0526316 8.42105263,21.0526316 8.42105263,21.0526316 C8.42105263,21.0526316 8.42105263,24.1957895 8.42105263,25.2631579 C8.42105263,27.5894737 6.53684211,29.4736842 4.21052632,29.4736842 C1.88421053,29.4736842 0,27.5894737 0,25.2631579 C0,22.9368421 1.88421053,21.0526316 4.21052632,21.0526316 Z M25.2631579,29.4736842 C26.6126316,29.4736842 34.4442105,29.4736842 35.7894737,29.4736842 C38.1157895,29.4736842 40,27.5894737 40,25.2631579 C40,22.9368421 38.1157895,21.0526316 35.7894737,21.0526316 C34.4442105,21.0526316 26.6126316,21.0526316 25.2631579,21.0526316 C22.9368421,21.0526316 21.0526316,22.9368421 21.0526316,25.2631579 C21.0526316,27.5873684 22.9368421,29.4736842 25.2631579,29.4736842 Z M21.0526316,35.7894737 C21.0526316,34.5305263 21.0526316,31.5789474 21.0526316,31.5789474 C21.0526316,31.5789474 24.1957895,31.5789474 25.2631579,31.5789474 C27.5894737,31.5789474 29.4736842,33.4631579 29.4736842,35.7894737 C29.4736842,38.1157895 27.5894737,40 25.2631579,40 C22.9368421,40 21.0526316,38.1136842 21.0526316,35.7894737 Z M29.4736842,14.7368421 C29.4736842,13.3873684 29.4736842,5.55578947 29.4736842,4.21052632 C29.4736842,1.88421053 27.5894737,0 25.2631579,0 C22.9368421,0 21.0526316,1.88421053 21.0526316,4.21052632 C21.0526316,5.55578947 21.0526316,13.3873684 21.0526316,14.7368421 C21.0526316,17.0631579 22.9368421,18.9473684 25.2631579,18.9473684 C27.5873684,18.9473684 29.4736842,17.0610526 29.4736842,14.7368421 Z M35.7894737,18.9473684 C34.5305263,18.9473684 31.5789474,18.9473684 31.5789474,18.9473684 C31.5789474,18.9473684 31.5789474,15.8042105 31.5789474,14.7368421 C31.5789474,12.4105263 33.4631579,10.5263158 35.7894737,10.5263158 C38.1157895,10.5263158 40,12.4105263 40,14.7368421 C40,17.0631579 38.1136842,18.9473684 35.7894737,18.9473684 Z" id="Shape"></path>
        </g>
    </g>
</svg>

<svg xmlns="http://www.w3.org/2000/svg" width="40" height="40"><path fill="#94A3B8" d="M14.737 10.526H4.21A4.21 4.21 0 0 0 0 14.736a4.21 4.21 0 0 0 4.21 4.211h10.527a4.21 4.21 0 0 0 4.21-4.21 4.21 4.21 0 0 0-4.21-4.21Zm4.21-6.315v4.21h-4.21a4.21 4.21 0 0 1-4.21-4.21A4.21 4.21 0 0 1 14.736 0a4.21 4.21 0 0 1 4.21 4.21Zm-8.42 21.052V35.79A4.21 4.21 0 0 0 14.736 40a4.21 4.21 0 0 0 4.21-4.21V25.262a4.21 4.21 0 0 0-4.21-4.21 4.21 4.21 0 0 0-4.21 4.21Zm-6.316-4.21h4.21v4.21a4.21 4.21 0 0 1-4.21 4.21A4.21 4.21 0 0 1 0 25.264a4.21 4.21 0 0 1 4.21-4.21Zm21.052 8.42H35.79A4.21 4.21 0 0 0 40 25.264a4.21 4.21 0 0 0-4.21-4.21H25.262a4.21 4.21 0 0 0 0 8.421Zm-4.21 6.316v-4.21h4.21a4.21 4.21 0 0 1 4.21 4.21 4.21 4.21 0 0 1-8.421 0Zm8.42-21.052V4.21A4.21 4.21 0 0 0 25.264 0a4.21 4.21 0 0 0-4.21 4.21v10.527a4.21 4.21 0 0 0 4.21 4.21 4.212 4.212 0 0 0 4.21-4.21Zm6.316 4.21h-4.21v-4.21a4.21 4.21 0 0 1 4.21-4.21 4.21 4.21 0 0 1 0 8.421Z"/></svg>
